X:64
T:An Dro
C:TUD
M:4/4
L:1/8
K:G
d2cB G2GG|BcAB GABc|\
d2cB G2FG|c2B2A4:|\
|:G2GG A2Bc|
d2A2 cBG2|1 BcAB G2FG|\
c2B2A4:|2 BcAG F2A2|G2BA G4||
